X: 30162
M: 3/8
L: 1/16
K: C
ef |\
g2gagf | e2efed | c2G2c2 | c4 ef |\
g2gage | c'2g2f2 | e2gfef | d4 ef |\
g2gagf | e2efed | c2G2c2 | c4 g2 |\
a2c'agf | e2c'2e2 | d2g2^f2 | g4 :|
|: G2 |\
c2c'agf | e2c'2e2 | d2dcde | c4 :|


